HQ_Builder/JDVD-to_tng_lut3.cube
#Generated by: Picture Instruments - Image2LUT
TITLE "JDVD-to_tng_lut3.cube"
LUT_3D_SIZE 5
DOMAIN_MIN 0.000000 0.000000 0.000000
DOMAIN_MAX 0.903226 0.903226 0.903226
0.0000 0.0000 0.0000
0.1412 0.0000 0.0000
0.4353 0.0000 0.0000
0.7333 0.0000 0.0000
0.9922 0.0000 0.0000
0.0000 0.0627 0.0000
0.1333 0.1294 0.0000
0.4353 0.1451 0.0000
0.7333 0.1451 0.0000
0.9922 0.1451 0.0000
0.0000 0.4039 0.0000
0.1451 0.4039 0.0000
0.4314 0.4314 0.0000
0.7333 0.4353 0.0000
0.9922 0.4353 0.0000
0.0000 0.7333 0.0000
0.1451 0.7333 0.0000
0.4353 0.7333 0.0000
0.7333 0.7333 0.0000
0.9922 0.7333 0.0000
0.0000 0.9922 0.0000
0.1451 0.9922 0.0000
0.4353 0.9922 0.0000
0.7333 0.9922 0.0000
0.9922 0.9922 0.0000
0.0000 0.0000 0.0588
0.1059 0.0000 0.0980
0.4353 0.0000 0.1451
0.7333 0.0000 0.1451
0.9922 0.0000 0.1451
0.0000 0.0627 0.0627
0.1451 0.1412 0.1373
0.4549 0.1216 0.1216
0.7333 0.1412 0.1412
0.9922 0.1451 0.1451
0.0000 0.4039 0.1451
0.2078 0.3569 0.2078
0.4431 0.4392 0.1373
0.7373 0.4353 0.1412
0.9922 0.4353 0.1451
0.0000 0.7333 0.1451
0.1647 0.7098 0.1647
0.4353 0.7020 0.1725
0.7255 0.7255 0.1490
0.9922 0.7333 0.1451
0.0000 0.9922 0.1451
0.1451 0.9922 0.1451
0.4353 0.9922 0.1451
0.7333 0.9922 0.1451
0.9922 0.9922 0.1451
0.0000 0.0000 0.4039
0.1451 0.0000 0.4039
0.4118 0.0000 0.4118
0.7333 0.0000 0.4353
0.9922 0.0000 0.4353
0.0000 0.1451 0.4039
0.2118 0.2118 0.3529
0.4000 0.1804 0.3961
0.7333 0.1451 0.4353
0.9922 0.1451 0.4353
0.0000 0.4118 0.4118
0.2275 0.3569 0.3569
0.4353 0.4353 0.4353
0.7529 0.4118 0.4118
0.9961 0.4314 0.4314
0.0000 0.7333 0.4353
0.1725 0.7020 0.4353
0.5059 0.6510 0.5059
0.7373 0.7373 0.4275
0.9961 0.7333 0.4314
0.0000 0.9922 0.4353
0.1451 0.9922 0.4353
0.4588 0.9686 0.4588
0.7333 0.9686 0.4627
0.9882 0.9922 0.4392
0.0000 0.0000 0.7333
0.1451 0.0000 0.7333
0.4353 0.0000 0.7333
0.7333 0.0000 0.7333
0.9922 0.0000 0.7333
0.0000 0.1451 0.7333
0.1647 0.1647 0.7098
0.4353 0.1725 0.7020
0.7059 0.1686 0.7059
0.9922 0.1451 0.7333
0.0000 0.4353 0.7333
0.1725 0.4353 0.7020
0.5098 0.5098 0.6471
0.6902 0.4784 0.6863
0.9922 0.4353 0.7294
0.0000 0.7333 0.7333
0.1686 0.7059 0.7059
0.5216 0.6510 0.6510
0.7294 0.7294 0.7255
1.0000 0.7098 0.7098
0.0000 0.9922 0.7333
0.1451 0.9922 0.7333
0.4627 0.9686 0.7294
0.8000 0.9529 0.8000
0.9961 1.0000 0.7294
0.0000 0.0000 0.9922
0.1451 0.0000 0.9922
0.4353 0.0000 0.9922
0.7333 0.0000 0.9922
0.9922 0.0000 0.9922
0.0000 0.1451 0.9922
0.1451 0.1451 0.9922
0.4353 0.1451 0.9922
0.7333 0.1451 0.9922
0.9922 0.1451 0.9922
0.0000 0.4353 0.9922
0.1451 0.4353 0.9922
0.4588 0.4588 0.9686
0.7294 0.4627 0.9686
0.9765 0.4549 0.9765
0.0000 0.7333 0.9922
0.1451 0.7333 0.9922
0.4627 0.7333 0.9686
0.8039 0.8039 0.9490
0.9804 0.7647 0.9843
0.0000 0.9922 0.9922
0.1451 0.9922 0.9922
0.4549 0.9765 0.9765
0.8196 0.9451 0.9451
0.9961 0.9961 0.9961
