HQ_Builder/JDVD-to_tng_lut3.cube
#Generated by: Picture Instruments - Image2LUT
TITLE "JDVD-to_tng_lut3.cube"
LUT_3D_SIZE 32
0.0000 0.0000 0.0000
0.0000 0.0000 0.0000
0.0000 0.0000 0.0000
0.0000 0.0000 0.0000
0.0078 0.0000 0.0000
0.0510 0.0000 0.0000
0.0941 0.0000 0.0000
0.1412 0.0000 0.0000
0.1843 0.0000 0.0000
0.2235 0.0000 0.0000
0.2667 0.0000 0.0000
0.3059 0.0000 0.0000
0.3529 0.0000 0.0000
0.3961 0.0000 0.0000
0.4353 0.0000 0.0000
0.4784 0.0000 0.0000
0.5216 0.0000 0.0000
0.5647 0.0000 0.0000
0.6039 0.0000 0.0000
0.6471 0.0000 0.0000
0.6902 0.0000 0.0000
0.7333 0.0000 0.0000
0.7725 0.0000 0.0000
0.8118 0.0000 0.0000
0.8549 0.0000 0.0000
0.9020 0.0000 0.0000
0.9412 0.0000 0.0000
0.9804 0.0000 0.0000
0.9922 0.0000 0.0000
1.0000 0.0000 0.0000
1.0000 0.0000 0.0000
1.0000 0.0000 0.0000
0.0000 0.0000 0.0000
0.0000 0.0000 0.0000
0.0000 0.0000 0.0000
0.0000 0.0000 0.0000
0.0078 0.0000 0.0000
0.0510 0.0000 0.0000
0.0941 0.0000 0.0000
0.1412 0.0000 0.0000
0.1843 0.0000 0.0000
0.2235 0.0000 0.0000
0.2667 0.0000 0.0000
0.3059 0.0000 0.0000
0.3529 0.0000 0.0000
0.3961 0.0000 0.0000
0.4353 0.0000 0.0000
0.4784 0.0000 0.0000
0.5216 0.0000 0.0000
0.5647 0.0000 0.0000
0.6039 0.0000 0.0000
0.6471 0.0000 0.0000
0.6902 0.0000 0.0000
0.7333 0.0000 0.0000
0.7725 0.0000 0.0000
0.8118 0.0000 0.0000
0.8549 0.0000 0.0000
0.9020 0.0000 0.0000
0.9412 0.0000 0.0000
0.9804 0.0000 0.0000
0.9922 0.0000 0.0000
1.0000 0.0000 0.0000
1.0000 0.0000 0.0000
1.0000 0.0000 0.0000
0.0000 0.0000 0.0000
0.0000 0.0000 0.0000
0.0000 0.0000 0.0000
0.0000 0.0000 0.0000
0.0078 0.0000 0.0000
0.0510 0.0000 0.0000
0.0941 0.0000 0.0000
0.1412 0.0000 0.0000
0.1843 0.0000 0.0000
0.2235 0.0000 0.0000
0.2667 0.0000 0.0000
0.3059 0.0000 0.0000
0.3529 0.0000 0.0000
0.3961 0.0000 0.0000
0.4353 0.0000 0.0000
0.4784 0.0000 0.0000
0.5216 0.0000 0.0000
0.5647 0.0000 0.0000
0.6039 0.0000 0.0000
0.6471 0.0000 0.0000
0.6902 0.0000 0.0000
0.7333 0.0000 0.0000
0.7725 0.0000 0.0000
0.8118 0.0000 0.0000
0.8549 0.0000 0.0000
0.9020 0.0000 0.0000
0.9412 0.0000 0.0000
0.9804 0.0000 0.0000
0.9922 0.0000 0.0000
1.0000 0.0000 0.0000
1.0000 0.0000 0.0000
1.0000 0.0000 0.0000
0.0000 0.0000 0.0000
0.0000 0.0000 0.0000
0.0000 0.0000 0.0000
0.0000 0.0000 0.0000
0.0078 0.0039 0.0000
0.0510 0.0039 0.0000
0.0941 0.0039 0.0000
0.1412 0.0039 0.0000
0.1843 0.0039 0.0000
0.2235 0.0039 0.0000
0.2667 0.0039 0.0000
0.3059 0.0039 0.0000
0.3529 0.0078 0.0000
0.3961 0.0078 0.0000
0.4353 0.0078 0.0000
0.4784 0.0078 0.0000
0.5216 0.0078 0.0000
0.5647 0.0078 0.0000
0.6039 0.0078 0.0000
0.6471 0.0078 0.0000
0.6902 0.0078 0.0000
0.7333 0.0078 0.0000
0.7725 0.0078 0.0000
0.8118 0.0078 0.0000
0.8549 0.0078 0.0000
0.9020 0.0078 0.0000
0.9412 0.0078 0.0000
0.9804 0.0078 0.0000
0.9922 0.0078 0.0000
1.0000 0.0078 0.0000
1.0000 0.0078 0.0000
1.0000 0.0078 0.0000
0.0000 0.0000 0.0000
0.0000 0.0039 0.0000
0.0000 0.0039 0.0000
0.0000 0.0039 0.0000
0.0078 0.0078 0.0000
0.0510 0.0118 0.0000
0.0941 0.0118 0.0000
0.1412 0.0157 0.0000
0.1843 0.0157 0.0000
0.2235 0.0157 0.0000
0.2667 0.0157 0.0000
0.3059 0.0157 0.0000
0.3529 0.0157 0.0000
0.3961 0.0157 0.0000
0.4353 0.0157 0.0000
0.4784 0.0196 0.0000
0.5216 0.0196 0.0000
0.5647 0.0196 0.0000
0.6039 0.0196 0.0000
0.6471 0.0196 0.0000
0.6902 0.0196 0.0000
0.7333 0.0196 0.0000
0.7725 0.0196 0.0000
0.8118 0.0196 0.0000
0.8549 0.0196 0.0000
0.9020 0.0196 0.0000
0.9412 0.0196 0.0000
0.9804 0.0196 0.0000
0.9922 0.0196 0.0000
1.0000 0.0196 0.0000
1.0000 0.0196 0.0000
1.0000 0.0196 0.0000
0.0000 0.0157 0.0000
0.0000 0.0196 0.0000
0.0000 0.0235 0.0000
0.0000 0.0314 0.0000
0.0078 0.0392 0.0000
0.0471 0.0471 0.0000
0.0902 0.0510 0.0000
0.1412 0.0510 0.0000
0.1804 0.0549 0.0000
0.2235 0.0549 0.0000
0.2667 0.0549 0.0000
0.3059 0.0588 0.0000
0.3529 0.0588 0.0000
0.3961 0.0588 0.0000
0.4353 0.0588 0.0000
0.4784 0.0588 0.0000
0.5216 0.0588 0.0000
0.5647 0.0588 0.0000
0.6039 0.0588 0.0000
0.6471 0.0588 0.0000
0.6902 0.0588 0.0000
0.7333 0.0588 0.0000
0.7725 0.0588 0.0000
0.8118 0.0588 0.0000
0.8549 0.0588 0.0000
0.9020 0.0588 0.0000
0.9412 0.0588 0.0000
0.9804 0.0588 0.0000
0.9922 0.0588 0.0000
1.0000 0.0588 0.0000
1.0000 0.0588 0.0000
1.0000 0.0588 0.0000
0.0000 0.0275 0.0000
0.0000 0.0392 0.0000
0.0000 0.0471 0.0000
0.0000 0.0588 0.0000
0.0078 0.0706 0.0000
0.0471 0.0784 0.0000
0.0863 0.0863 0.0000
0.1373 0.0902 0.0000
0.1804 0.0941 0.0000
0.2235 0.0980 0.0000
0.2667 0.0980 0.0000
0.3059 0.0980 0.0000
0.3529 0.0980 0.0000
0.3961 0.0980 0.0000
0.4353 0.0980 0.0000
0.4784 0.0980 0.0000
0.5216 0.0980 0.0000
0.5647 0.0980 0.0000
0.6039 0.0980 0.0000
0.6471 0.0980 0.0000
0.6902 0.0980 0.0000
0.7333 0.0980 0.0000
0.7725 0.0980 0.0000
0.8118 0.0980 0.0000
0.8549 0.0980 0.0000
0.9020 0.0980 0.0000
0.9412 0.0980 0.0000
0.9804 0.0980 0.0000
0.9922 0.0980 0.0000
1.0000 0.0980 0.0000
1.0000 0.0980 0.0000
1.0000 0.0980 0.0000
0.0000 0.0627 0.0000
0.0000 0.0706 0.0000
0.0000 0.0784 0.0000
0.0039 0.0863 0.0000
0.0118 0.0980 0.0000
0.0471 0.1098 0.0000
0.0824 0.1176 0.0000
0.1333 0.1294 0.0000
0.1765 0.1333 0.0000
0.2196 0.1373 0.0000
0.2627 0.1412 0.0000
0.3059 0.1451 0.0000
0.3529 0.1451 0.0000
0.3961 0.1451 0.0000
0.4353 0.1451 0.0000
0.4784 0.1451 0.0000
0.5216 0.1451 0.0000
0.5647 0.1451 0.0000
0.6039 0.1451 0.0000
0.6471 0.1451 0.0000
0.6902 0.1451 0.0000
0.7333 0.1451 0.0000
0.7725 0.1451 0.0000
0.8118 0.1451 0.0000
0.8549 0.1451 0.0000
0.9020 0.1451 0.0000
0.9412 0.1451 0.0000
0.9804 0.1451 0.0000
0.9922 0.1451 0.0000
1.0000 0.1451 0.0000
1.0000 0.1451 0.0000
1.0000 0.1451 0.0000
0.0000 0.0980 0.0000
0.0000 0.1020 0.0000
0.0000 0.1059 0.0000
0.0078 0.1137 0.0000
0.0157 0.1255 0.0000
0.0471 0.1373 0.0000
0.0784 0.1490 0.0000
0.1294 0.1608 0.0000
0.1725 0.1686 0.0000
0.2157 0.1765 0.0000
0.2627 0.1804 0.0000
0.3059 0.1843 0.0000
0.3529 0.1843 0.0000
0.3961 0.1843 0.0000
0.4353 0.1843 0.0000
0.4784 0.1843 0.0000
0.5216 0.1882 0.0000
0.5647 0.1882 0.0000
0.6039 0.1882 0.0000
0.6471 0.1882 0.0000
0.6902 0.1882 0.0000
0.7333 0.1882 0.0000
0.7725 0.1882 0.0000
0.8118 0.1882 0.0000
0.8549 0.1882 0.0000
0.9020 0.1882 0.0000
0.9412 0.1882 0.0000
0.9804 0.1882 0.0000
0.9922 0.1882 0.0000
1.0000 0.1882 0.0000
1.0000 0.1882 0.0000
1.0000 0.1882 0.0000
0.0000 0.1373 0.0000
0.0000 0.1412 0.0000
0.0000 0.1412 0.0000
0.0118 0.1490 0.0000
0.0235 0.1569 0.0000
0.0510 0.1647 0.0000
0.0824 0.1765 0.0000
0.1255 0.1882 0.0000
0.1647 0.2000 0.0000
0.2118 0.2078 0.0000
0.2549 0.2157 0.0000
0.3020 0.2196 0.0000
0.3529 0.2235 0.0000
0.3922 0.2275 0.0000
0.4353 0.2275 0.0000
0.4784 0.2275 0.0000
0.5216 0.2275 0.0000
0.5647 0.2275 0.0000
0.6039 0.2275 0.0000
0.6471 0.2275 0.0000
0.6902 0.2275 0.0000
0.7333 0.2275 0.0000
0.7725 0.2275 0.0000
0.8118 0.2275 0.0000
0.8549 0.2275 0.0000
0.9020 0.2275 0.0000
0.9412 0.2275 0.0000
0.9804 0.2275 0.0000
0.9922 0.2275 0.0000
1.0000 0.2275 0.0000
1.0000 0.2275 0.0000
1.0000 0.2275 0.0000
0.0000 0.1804 0.0000
0.0000 0.1843 0.0000
0.0000 0.1843 0.0000
0.0157 0.1882 0.0000
0.0314 0.1922 0.0000
0.0588 0.1961 0.0000
0.0863 0.2039 0.0000
0.1255 0.2196 0.0000
0.1647 0.2314 0.0000
0.2078 0.2392 0.0000
0.2510 0.2510 0.0000
0.2980 0.2588 0.0000
0.3490 0.2627 0.0000
0.3922 0.2667 0.0000
0.4353 0.2667 0.0000
0.4784 0.2667 0.0000
0.5216 0.2667 0.0000
0.5647 0.2667 0.0000
0.6039 0.2667 0.0000
0.6471 0.2667 0.0000
0.6902 0.2667 0.0000
0.7333 0.2667 0.0000
0.7725 0.2667 0.0000
0.8118 0.2667 0.0000
0.8549 0.2667 0.0000
0.9020 0.2667 0.0000
0.9412 0.2667 0.0000
0.9804 0.2667 0.0000
0.9922 0.2667 0.0000
1.0000 0.2667 0.0000
1.0000 0.2667 0.0000
1.0000 0.2667 0.0000
0.0000 0.2314 0.0000
0.0000 0.2314 0.0000
0.0000 0.2314 0.0000
0.0157 0.2353 0.0000
0.0353 0.2353 0.0000
0.0627 0.2392 0.0000
0.0941 0.2471 0.0000
0.1294 0.2549 0.0000
0.1647 0.2627 0.0000
0.2078 0.2745 0.0000
0.2471 0.2824 0.0000
0.2941 0.2902 0.0000
0.3451 0.2980 0.0000
0.3922 0.3059 0.0000
0.4353 0.3059 0.0000
0.4784 0.3098 0.0000
0.5216 0.3098 0.0000
0.5647 0.3098 0.0000
0.6039 0.3098 0.0000
0.6471 0.3098 0.0000
0.6902 0.3098 0.0000
0.7333 0.3098 0.0000
0.7725 0.3098 0.0000
0.8118 0.3098 0.0000
0.8549 0.3098 0.0000
0.9020 0.3098 0.0000
0.9412 0.3098 0.0000
0.9804 0.3098 0.0000
0.9922 0.3098 0.0000
1.0000 0.3098 0.0000
1.0000 0.3098 0.0000
1.0000 0.3098 0.0000
0.0000 0.2902 0.0000
0.0000 0.2902 0.0000
0.0000 0.2902 0.0000
0.0196 0.2902 0.0000
0.0392 0.2902 0.0000
0.0667 0.2941 0.0000
0.0980 0.2941 0.0000
0.1333 0.3020 0.0000
0.1686 0.3059 0.0000
0.2078 0.3137 0.0000
0.2471 0.3255 0.0000
0.2902 0.3333 0.0000
0.3412 0.3412 0.0000
0.3882 0.3490 0.0000
0.4314 0.3529 0.0000
0.4745 0.3529 0.0000
0.5216 0.3529 0.0000
0.5647 0.3529 0.0000
0.6039 0.3529 0.0000
0.6471 0.3529 0.0000
0.6902 0.3529 0.0000
0.7333 0.3529 0.0000
0.7725 0.3529 0.0000
0.8118 0.3529 0.0000
0.8549 0.3529 0.0000
0.9020 0.3529 0.0000
0.9412 0.3529 0.0000
0.9804 0.3529 0.0000
0.9922 0.3529 0.0000
1.0000 0.3529 0.0000
1.0000 0.3529 0.0000
1.0000 0.3529 0.0000
0.0000 0.3451 0.0000
0.0000 0.3451 0.0000
0.0000 0.3451 0.0000
0.0157 0.3451 0.0000
0.0353 0.3451 0.0000
0.0667 0.3490 0.0000
0.1020 0.3490 0.0000
0.1412 0.3529 0.0000
0.1765 0.3529 0.0000
0.2118 0.3608 0.0000
0.2510 0.3647 0.0000
0.2941 0.3725 0.0000
0.3412 0.3804 0.0000
0.3843 0.3843 0.0000
0.4314 0.3882 0.0000
0.4745 0.3922 0.0000
0.5216 0.3961 0.0000
0.5647 0.3961 0.0000
0.6039 0.3961 0.0000
0.6471 0.3961 0.0000
0.6902 0.3961 0.0000
0.7333 0.3961 0.0000
0.7725 0.3961 0.0000
0.8118 0.3961 0.0000
0.8549 0.3961 0.0000
0.9020 0.3961 0.0000
0.9412 0.3961 0.0000
0.9804 0.3961 0.0000
0.9922 0.3961 0.0000
1.0000 0.3961 0.0000
1.0000 0.3961 0.0000
1.0000 0.3961 0.0000
0.0000 0.4039 0.0000
0.0000 0.4039 0.0000
0.0000 0.4039 0.0000
0.0157 0.4039 0.0000
0.0314 0.4039 0.0000
0.0667 0.4039 0.0000
0.1020 0.4039 0.0000
0.1451 0.4039 0.0000
0.1804 0.4078 0.0000
0.2196 0.4078 0.0000
0.2549 0.4118 0.0000
0.2980 0.4157 0.0000
0.3451 0.4235 0.0000
0.3882 0.4275 0.0000
0.4314 0.4314 0.0000
0.4745 0.4353 0.0000
0.5216 0.4353 0.0000
0.5647 0.4353 0.0000
0.6039 0.4353 0.0000
0.6471 0.4353 0.0000
0.6902 0.4353 0.0000
0.7333 0.4353 0.0000
0.7725 0.4353 0.0000
0.8118 0.4353 0.0000
0.8549 0.4353 0.0000
0.9020 0.4353 0.0000
0.9412 0.4353 0.0000
0.9804 0.4353 0.0000
0.9922 0.4353 0.0000
1.0000 0.4353 0.0000
1.0000 0.4353 0.0000
1.0000 0.4353 0.0000
0.0000 0.4627 0.0000
0.0000 0.4627 0.0000
0.0000 0.4627 0.0000
0.0118 0.4627 0.0000
0.0235 0.4627 0.0000
0.0627 0.4627 0.0000
0.1020 0.4627 0.0000
0.1451 0.4667 0.0000
0.1843 0.4667 0.0000
0.2235 0.4667 0.0000
0.2627 0.4667 0.0000
0.3059 0.4706 0.0000
0.3490 0.4706 0.0000
0.3922 0.4745 0.0000
0.4353 0.4745 0.0000
0.4745 0.4745 0.0000
0.5216 0.4784 0.0000
0.5647 0.4784 0.0000
0.6039 0.4784 0.0000
0.6471 0.4784 0.0000
0.6902 0.4784 0.0000
0.7333 0.4784 0.0000
0.7725 0.4784 0.0000
0.8118 0.4784 0.0000
0.8549 0.4784 0.0000
0.9020 0.4784 0.0000
0.9412 0.4784 0.0000
0.9804 0.4784 0.0000
0.9922 0.4784 0.0000
1.0000 0.4784 0.0000
1.0000 0.4784 0.0000
1.0000 0.4784 0.0000
0.0000 0.5216 0.0000
0.0000 0.5216 0.0000
0.0000 0.5216 0.0000
0.0078 0.5216 0.0000
0.0196 0.5216 0.0000
0.0588 0.5216 0.0000
0.1020 0.5216 0.0000
0.1451 0.5216 0.0000
0.1882 0.5216 0.0000
0.2275 0.5216 0.0000
0.2667 0.5216 0.0000
0.3098 0.5216 0.0000
0.3529 0.5216 0.0000
0.3961 0.5216 0.0000
0.4353 0.5216 0.0000
0.4784 0.5216 0.0000
0.5216 0.5216 0.0000
0.5647 0.5216 0.0000
0.6039 0.5216 0.0000
0.6471 0.5216 0.0000
0.6902 0.5216 0.0000
0.7333 0.5216 0.0000
0.7725 0.5216 0.0000
0.8118 0.5216 0.0000
0.8549 0.5216 0.0000
0.9020 0.5216 0.0000
0.9412 0.5216 0.0000
0.9804 0.5216 0.0000
0.9922 0.5216 0.0000
1.0000 0.5216 0.0000
1.0000 0.5216 0.0000
1.0000 0.5216 0.0000
0.0000 0.5647 0.0000
0.0000 0.5647 0.0000
0.0000 0.5647 0.0000
0.0078 0.5647 0.0000
0.0196 0.5647 0.0000
0.0588 0.5647 0.0000
0.0980 0.5647 0.0000
0.1451 0.5647 0.0000
0.1882 0.5647 0.0000
0.2275 0.5647 0.0000
0.2667 0.5647 0.0000
0.3098 0.5647 0.0000
0.3529 0.5647 0.0000
0.3961 0.5647 0.0000
0.4353 0.5647 0.0000
0.4784 0.5647 0.0000
0.5216 0.5647 0.0000
0.5647 0.5647 0.0000
0.6039 0.5647 0.0000
0.6471 0.5647 0.0000
0.6902 0.5647 0.0000
0.7333 0.5647 0.0000
0.7725 0.5647 0.0000
0.8118 0.5647 0.0000
0.8549 0.5647 0.0000
0.9020 0.5647 0.0000
0.9412 0.5647 0.0000
0.9804 0.5647 0.0000
0.9922 0.5647 0.0000
1.0000 0.5647 0.0000
1.0000 0.5647 0.0000
1.0000 0.5647 0.0000
0.0000 0.6039 0.0000
0.0000 0.6039 0.0000
0.0000 0.6039 0.0000
0.0078 0.6039 0.0000
0.0196 0.6039 0.0000
0.0588 0.6039 0.0000
0.0980 0.6039 0.0000
0.1451 0.6039 0.0000
0.1882 0.6039 0.0000
0.2275 0.6039 0.0000
0.2667 0.6039 0.0000
0.3098 0.6039 0.0000
0.3529 0.6039 0.0000
0.3961 0.6039 0.0000
0.4353 0.6039 0.0000
0.4784 0.6039 0.0000
0.5216 0.6039 0.0000
0.5647 0.6039 0.0000
0.6039 0.6039 0.0000
0.6471 0.6039 0.0000
0.6902 0.6039 0.0000
0.7333 0.6039 0.0000
0.7725 0.6039 0.0000
0.8118 0.6039 0.0000
0.8549 0.6039 0.0000
0.9020 0.6039 0.0000
0.9412 0.6039 0.0000
0.9804 0.6039 0.0000
0.9922 0.6039 0.0000
1.0000 0.6039 0.0000
1.0000 0.6039 0.0000
1.0000 0.6039 0.0000
0.0000 0.6471 0.0000
0.0000 0.6471 0.0000
0.0000 0.6471 0.0000
0.0078 0.6471 0.0000
0.0196 0.6471 0.0000
0.0588 0.6471 0.0000
0.0980 0.6471 0.0000
0.1451 0.6471 0.0000
0.1882 0.6471 0.0000
0.2275 0.6471 0.0000
0.2667 0.6471 0.0000
0.3098 0.6471 0.0000
0.3529 0.6471 0.0000
0.3961 0.6471 0.0000
0.4353 0.6471 0.0000
0.4784 0.6471 0.0000
0.5216 0.6471 0.0000
0.5647 0.6471 0.0000
0.6039 0.6471 0.0000
0.6471 0.6471 0.0000
0.6902 0.6471 0.0000
0.7333 0.6471 0.0000
0.7725 0.6471 0.0000
0.8118 0.6471 0.0000
0.8549 0.6471 0.0000
0.9020 0.6471 0.0000
0.9412 0.6471 0.0000
0.9804 0.6471 0.0000
0.9922 0.6471 0.0000
1.0000 0.6471 0.0000
1.0000 0.6471 0.0000
1.0000 0.6471 0.0000
0.0000 0.6902 0.0000
0.0000 0.6902 0.0000
0.0000 0.6902 0.0000
0.0078 0.6902 0.0000
0.0196 0.6902 0.0000
0.0588 0.6902 0.0000
0.0980 0.6902 0.0000
0.1451 0.6902 0.0000
0.1882 0.6902 0.0000
0.2275 0.6902 0.0000
0.2667 0.6902 0.0000
0.3098 0.6902 0.0000
0.3529 0.6902 0.0000
0.3961 0.6902 0.0000
0.4353 0.6902 0.0000
0.4784 0.6902 0.0000
0.5216 0.6902 0.0000
0.5647 0.6902 0.0000
0.6039 0.6902 0.0000
0.6471 0.6902 0.0000
0.6902 0.6902 0.0000
0.7333 0.6902 0.0000
0.7725 0.6902 0.0000
0.8118 0.6902 0.0000
0.8549 0.6902 0.0000
0.9020 0.6902 0.0000
0.9412 0.6902 0.0000
0.9804 0.6902 0.0000
0.9922 0.6902 0.0000
1.0000 0.6902 0.0000
1.0000 0.6902 0.0000
1.0000 0.6902 0.0000
0.0000 0.7333 0.0000
0.0000 0.7333 0.0000
0.0000 0.7333 0.0000
0.0078 0.7333 0.0000
0.0196 0.7333 0.0000
0.0588 0.7333 0.0000
0.0980 0.7333 0.0000
0.1451 0.7333 0.0000
0.1882 0.7333 0.0000
0.2275 0.7333 0.0000
0.2667 0.7333 0.0000
0.3098 0.7333 0.0000
0.3529 0.7333 0.0000
0.3961 0.7333 0.0000
0.4353 0.7333 0.0000
0.4784 0.7333 0.0000
0.5216 0.7333 0.0000
0.5647 0.7333 0.0000
0.6039 0.7333 0.0000
0.6471 0.7333 0.0000
0.6902 0.7333 0.0000
0.7333 0.7333 0.0000
0.7725 0.7333 0.0000
0.8118 0.7333 0.0000
0.8549 0.7333 0.0000
0.9020 0.7333 0.0000
0.9412 0.7333 0.0000
0.9804 0.7333 0.0000
0.9922 0.7333 0.0000
1.0000 0.7333 0.0000
1.0000 0.7333 0.0000
1.0000 0.7333 0.0000
0.0000 0.7725 0.0000
0.0000 0.7725 0.0000
0.0000 0.7725 0.0000
0.0078 0.7725 0.0000
0.0196 0.7725 0.0000
0.0588 0.7725 0.0000
0.0980 0.7725 0.0000
0.1451 0.7725 0.0000
0.1882 0.7725 0.0000
0.2275 0.7725 0.0000
0.2667 0.7725 0.0000
0.3098 0.7725 0.0000
0.3529 0.7725 0.0000
0.3961 0.7725 0.0000
0.4353 0.7725 0.0000
0.4784 0.7725 0.0000
0.5216 0.7725 0.0000
0.5647 0.7725 0.0000
0.6039 0.7725 0.0000
0.6471 0.7725 0.0000
0.6902 0.7725 0.0000
0.7333 0.7725 0.0000
0.7725 0.7725 0.0000
0.8118 0.7725 0.0000
0.8549 0.7725 0.0000
0.9020 0.7725 0.0000
0.9412 0.7725 0.0000
0.9804 0.7725 0.0000
0.9922 0.7725 0.0000
1.0000 0.7725 0.0000
1.0000 0.7725 0.0000
1.0000 0.7725 0.0000
0.0000 0.8118 0.0000
0.0000 0.8118 0.0000
0.0000 0.8118 0.0000
0.0078 0.8118 0.0000
0.0196 0.8118 0.0000
0.0588 0.8118 0.0000
0.0980 0.8118 0.0000
0.1451 0.8118 0.0000
0.1882 0.8118 0.0000
0.2275 0.8118 0.0000
0.2667 0.8118 0.0000
0.3098 0.8118 0.0000
0.3529 0.8118 0.0000
0.3961 0.8118 0.0000
0.4353 0.8118 0.0000
0.4784 0.8118 0.0000
0.5216 0.8118 0.0000
0.5647 0.8118 0.0000
0.6039 0.8118 0.0000
0.6471 0.8118 0.0000
0.6902 0.8118 0.0000
0.7333 0.8118 0.0000
0.7725 0.8118 0.0000
0.8118 0.8118 0.0000
0.8549 0.8118 0.0000
0.9020 0.8118 0.0000
0.9412 0.8118 0.0000
0.9804 0.8118 0.0000
0.9922 0.8118 0.0000
1.0000 0.8118 0.0000
1.0000 0.8118 0.0000
1.0000 0.8118 0.0000
0.0000 0.8549 0.0000
0.0000 0.8549 0.0000
0.0000 0.8549 0.0000
0.0078 0.8549 0.0000
0.0196 0.8549 0.0000
0.0588 0.8549 0.0000
0.0980 0.8549 0.0000
0.1451 0.8549 0.0000
0.1882 0.8549 0.0000
0.2275 0.8549 0.0000
0.2667 0.8549 0.0000
0.3098 0.8549 0.0000
0.3529 0.8549 0.0000
0.3961 0.8549 0.0000
0.4353 0.8549 0.0000
0.4784 0.8549 0.0000
0.5216 0.8549 0.0000
0.5647 0.8549 0.0000
0.6039 0.8549 0.0000
0.6471 0.8549 0.0000
0.6902 0.8549 0.0000
0.7333 0.8549 0.0000
0.7725 0.8549 0.0000
0.8118 0.8549 0.0000
0.8549 0.8549 0.0000
0.9020 0.8549 0.0000
0.9412 0.8549 0.0000
0.9804 0.8549 0.0000
0.9922 0.8549 0.0000
1.0000 0.8549 0.0000
1.0000 0.8549 0.0000
1.0000 0.8549 0.0000
0.0000 0.9020 0.0000
0.0000 0.9020 0.0000
0.0000 0.9020 0.0000
0.0078 0.9020 0.0000
0.0196 0.9020 0.0000
0.0588 0.9020 0.0000
0.0980 0.9020 0.0000
0.1451 0.9020 0.0000
0.1882 0.9020 0.0000
0.2275 0.9020 0.0000
0.2667 0.9020 0.0000
0.3098 0.9020 0.0000
0.3529 0.9020 0.0000
0.3961 0.9020 0.0000
0.4353 0.9020 0.0000
0.4784 0.9020 0.0000
0.5216 0.9020 0.0000
0.5647 0.9020 0.0000
0.6039 0.9020 0.0000
0.6471 0.9020 0.0000
0.6902 0.9020 0.0000
0.7333 0.9020 0.0000
0.7725 0.9020 0.0000
0.8118 0.9020 0.0000
0.8549 0.9020 0.0000
0.9020 0.9020 0.0000
0.9412 0.9020 0.0000
0.9804 0.9020 0.0000
0.9922 0.9020 0.0000
1.0000 0.9020 0.0000
1.0000 0.9020 0.0000
1.0000 0.9020 0.0000
0.0000 0.9412 0.0000
0.0000 0.9412 0.0000
0.0000 0.9412 0.0000
0.0078 0.9412 0.0000
0.0196 0.9412 0.0000
0.0588 0.9412 0.0000
0.0980 0.9412 0.0000
0.1451 0.9412 0.0000
0.1882 0.9412 0.0000
0.2275 0.9412 0.0000
0.2667 0.9412 0.0000
0.3098 0.9412 0.0000
0.3529 0.9412 0.0000
0.3961 0.9412 0.0000
0.4353 0.9412 0.0000
0.4784 0.9412 0.0000
0.5216 0.9412 0.0000
0.5647 0.9412 0.0000
0.6039 0.9412 0.0000
0.6471 0.9412 0.0000
0.6902 0.9412 0.0000
0.7333 0.9412 0.0000
0.7725 0.9412 0.0000
0.8118 0.9412 0.0000
0.8549 0.9412 0.0000
0.9020 0.9412 0.0000
0.9412 0.9412 0.0000
0.9804 0.9412 0.0000
0.9922 0.9412 0.0000
1.0000 0.9412 0.0000
1.0000 0.9412 0.0000
1.0000 0.9412 0.0000
0.0000 0.9804 0.0000
0.0000 0.9804 0.0000
0.0000 0.9804 0.0000
0.0078 0.9804 0.0000
0.0196 0.9804 0.0000
0.0588 0.9804 0.0000
0.0980 0.9804 0.0000
0.1451 0.9804 0.0000
0.1882 0.9804 0.0000
0.2275 0.9804 0.0000
0.2667 0.9804 0.0000
0.3098 0.9804 0.0000
0.3529 0.9804 0.0000
0.3961 0.9804 0.0000
0.4353 0.9804 0.0000
0.4784 0.9804 0.0000
0.5216 0.9804 0.0000
0.5647 0.9804 0.0000
0.6039 0.9804 0.0000
0.6471 0.9804 0.0000
0.6902 0.9804 0.0000
0.7333 0.9804 0.0000
0.7725 0.9804 0.0000
0.8118 0.9804 0.0000
0.8549 0.9804 0.0000
0.9020 0.9804 0.0000
0.9412 0.9804 0.0000
0.9804 0.9804 0.0000
0.9922 0.9804 0.0000
1.0000 0.9804 0.0000
1.0000 0.9804 0.0000
1.0000 0.9804 0.0000
0.0000 0.9922 0.0000
0.0000 0.9922 0.0000
0.0000 0.9922 0.0000
0.0078 0.9922 0.0000
